!!!OTL:Wer hat die schoensten Schaefchen?
!!!OTL-incipit:WER HAT DIE SCHOENSTEN SCHAEFCHEN
!!!COM:C. Reinecke
!!!ARE: Europa, Mitteleuropa, Deutschland
!!!SCT: F0234
!!!TXL: @@DE
!!!YEM: Copyright 1995, estate of Helmut Schaffrath.
**kern	**text
*ICvox	*
*M2/4	*
*k[f#c#]	*
*D:	*
!LO:TX:a:t=Andantino.	!
{8d	1._Wer
=1	=1
8d	hat
8d	die
8.e	schön-
16e	-sten
=2	=2
(8f#L	Schäf
8aJ)	.
8dd;}	-chen?
{8b	die
=3	=3
8a	hat
8f#	der
8e	lie-
8g	-be
=4	=4
4.f#}	Mond,
{8d	der
=5	=5
8d	hin-
8d	-ter
8e	un-
8e	-sern
=6	=6
(8f#L	Bäu-
8aJ)	.
8dd}	-men
{8b	am
=7	=7
8a	Him-
8f#	-mel
8e	drü-
8g	-ben
=8	=8
4.f#}	wohnt;
{8f#	er
=9	=9
8e	kommt
8e	am
8a	spä-
8cc#	-ten
=10	=10
4cc#	A-
8b}	-bend,
{8a	wenn
=11	=11
8a	Al-
8g#	-les
8f#	schla-
8e	-fen
=12	=12
4.e}	will,
{16f#L	her-
16gnJ	.
=13	=13
8a	-vor
8a	aus
8g	sei-
8f#	-nem
=14	=14
(8eL	Hau-
8bJ)	.
8g}	-se
{8e	zum
=15	=15
8d	Him-
8c#	-mel
8f#	leis'
8e	und
=16	=16
4.d;}	still.
==	==
!!!AGN: Jugend - Lied, Abend
!!!ONB: ESAC (Essen Associative Code) Database: FINK
!!!AMT: simple duple
!!!AIN: vox
!!!EED: Helmut Schaffrath
!!!EEV: 1.0
!!Text: H. v. Fallersleben
!!!GTL: Jugendlieder
!!!source: Musikalischer Hausschatz der Deutschen. Eine Sammlung von über 1000 Liedern und Gesängen mit Singstimmen und Klavierbegleitung. Leipzig, Litterarisches Verlags-Haus.
!!!page: 139
!!!ENC: Anna Maria Matuszewska
!!!EEV: 2025/03/12
*-	*-